src/assets/img/sun.svg

<svg height="25" viewBox="0 0 24 23" width="30" xmlns="http://www.w3.org/2000/svg"><g fill="none" stroke="#fff" transform="translate(1)"><circle cx="11" cy="11.507" r="5"/><path d="m12.4412109 2.97817383h-3.04829552" transform="matrix(0 -1 1 0 8.006689 12.963037)"/><path d="m19.0388351 4.43089148h-1.9563477" transform="matrix(.70710678 -.70710678 .70710678 .70710678 2.156732 14.068594)"/><path d="m21.9697266 11.5066895h-2.8986454"/><path d="m19.0388351 18.5824874h-1.9563477" transform="matrix(.70710678 .70710678 -.70710678 .70710678 18.429648 -7.328131)"/><path d="m12.9412109 21.5352051h-2.95311328" transform="matrix(0 1 -1 0 32.520068 9.550342)"/><path d="m4.88723914 18.5824874h-1.95634766" transform="matrix(-.70710678 .70710678 -.70710678 -.70710678 19.812994 28.958163)"/><path d="m3.00918598 11.5066895h-3.00918598" transform="matrix(-1 0 0 -1 3.009186 23.013378)"/><path d="m4.88723914 4.43089148h-1.95634766" transform="matrix(-.70710678 -.70710678 .70710678 -.70710678 3.540078 10.32813)"/></g></svg>

<svg
  id="sunIcon"
  xmlns="http://www.w3.org/2000/svg"
  width="30"
  height="25"
  version="1.1"
  viewBox="0 0 24 23"
>
  <g fill="none" fillRule="evenodd" stroke="#fff" strokeWidth="1">
    <g stroke="#fff" transform="translate(1.000000, 0.000000)">
      <circle className="sun" cx="11" cy="11.507" r="5" />
      <path
        className="sun"
        strokeLinecap="round"
        d="M12.4412109,2.97817383 L9.39291538,2.97817383"
        transform="translate(10.484863, 2.478174) rotate(-90.000000) translate(-10.484863, -2.478174)"
      />
      <path
        className="sun"
        strokeLinecap="round"
        d="M19.0388351,4.43089148 L17.0824874,4.43089148"
        transform="translate(18.060661, 4.430891) rotate(-45.000000) translate(-18.060661, -4.430891)"
      />
      <path
        className="sun"
        strokeLinecap="round"
        d="M21.9697266,11.5066895 L19.0710812,11.5066895"
      />
      <path
        className="sun"
        strokeLinecap="round"
        d="M19.0388351,18.5824874 L17.0824874,18.5824874"
        transform="translate(18.060661, 18.582487) rotate(45.000000) translate(-18.060661, -18.582487)"
      />
      <path
        className="sun"
        strokeLinecap="round"
        d="M12.9412109,21.5352051 L9.98809762,21.5352051"
        transform="translate(11.484863, 21.035205) rotate(90.000000) translate(-11.484863, -21.035205)"
      />
      <path
        className="sun"
        strokeLinecap="round"
        d="M4.88723914,18.5824874 L2.93089148,18.5824874"
        transform="translate(3.909065, 18.582487) rotate(135.000000) translate(-3.909065, -18.582487)"
      />
      <path
        className="sun"
        strokeLinecap="round"
        d="M3.00918598,11.5066895 L2.66453526e-14,11.5066895"
        transform="translate(1.504593, 11.506689) rotate(180.000000) translate(-1.504593, -11.506689)"
      />
      <path
        className="sun"
        strokeLinecap="round"
        d="M4.88723914,4.43089148 L2.93089148,4.43089148"
        transform="translate(3.909065, 4.430891) rotate(225.000000) translate(-3.909065, -4.430891)"
      />
    </g>
  </g>
</svg>
